X:1
T:James Gibb editions
T:Fammi una gratia - Isaac
T:#
%%score [ 1 2 3 ]
L:1/8
Q:1/4=180
M:none
K:C
V:1 treble nm="Soprano" snm="S"
V:2 treble-8 nm="Tenor" snm="T"
V:3 bass nm="Bass" snm="B"
V:1
"^Fammi una gratia, amore""^Heinrich Isaac\n(c.1450-1517)" G8 G4 G4 | c8 c8 | B8 B8 | %3
w: Fam- mi~~u- na|gra- tia,~~a-|mo- re,|
w: |||
w: |||
 A6 B2 c4 (d4- | d2 c2 B2 A2 B4 A4- | A2 G2 G8 ^F4) | G16 | z8 A8 | A8 A8 | (G6 A2 B4) c4 | %10
w: i te ne pre\-|||gho.|Di|a ma-|don\- * * na|
w: |||||||
w: |||||||
 (d4 f4 e4 d4- | d2 c2 c8 B4) | c16 | z8 c8 | c8 c8 | B8 B8 | (G12 A4) | (B8 c8) | (d12 c2 B2) | %19
w: mi\- * * *||a|Che|di ser-|vir- la|el *|cor *|bra\- * *|
w: |||||||||
w: |||||||||
 A8 B8 | c6 (B2 A2 G2 A4- | A2 G2 G8 ^F4) | G16 || d8 d4 d4 | B8 B8 | ^c8 c8 | d12 (c4- | %27
w: ma~~e di-|si\- * * * *||a.|Dil- le con|tu- e|a- mo-|ro- se|
w: ||||Dil- le che|di mi-|rar- la|i' non|
w: ||||Pre- ga- la~~a-|dun- que|et di:|Don- na|
 c2 B2) (A2 G2) A8 | G16 | z8 G8 | c8 c8 | c12 B4 | (A8 G8 | A8 B8 | c16) | B16 | z8 (B8 | B8) A8 | %38
w: * * pa\- * ro-|le|che~~a|su ar-|den- ti|ra\- *|||i~|mio|cor si|
w: * * ar\- * dis\-|co,|Et|se~~el- la|vi pon|cu\- *|||ra,|Ve-|dra si|
w: * * a- mo- ro-|sa,|Tu|ve- di~~in|quan- to|fo\- *|||co,|E\-|* gli|
 ^G8 G8 | ^G12 A4 | B8 (c4 B4- | B4 A8 ^G4) | A8 z8 | d8 d4 d4 | (e6 d2 e4) d4- | d4 (c8 B4) | %46
w: fa- ce|Co- me|ne- ve~~al so\-||le|e po' che~~i|gli * * mi\-|* ra\- *|
w: co- me|i tre-|mo e~~in- pa\-|* li- di-|sco.|Et * de|mor\- * te ho|* pa- u-|
w: a- de|A te|sta be\- *||ne|es- ser pie-|to * * *||
 c16 | z8 c8 | c8 c8 | (B8 B8) | (B16 | B16) ||[M:3/1][Q:1/4=270] G8 G8 G8 | c16 c8 | (B8 B8 A8) | %55
w: i|La|no- cte~~e'l|gior\- *|no,||al- tro non|bra- mo|ma\- * *|
w: ra,|Ma|un suo|dol\- *|ce,||ma un suo|dol- ce,|sguar\- * do|
w: sa.|Fa,|che ti|par- li~~un|po-|co:|E- leg- gi|tu, ma-|don\- * na,~~el|
 (d12 c4 B4 A4 | B8) A12 G4 | (G8- G8 ^F8) | G24 |] %59
w: |||i;|
w: m'as\- * * *|* * si-|cu\- * *|ra.|
w: tem\- * * *|* po e'l|lo\- * *|co.|
V:2
 g8 g4 g4 | e8 f8 | g8 g8 | c6 d2 e4 (f4- | f2 e2 d2 c2 B4 c4 | G4 B4 A8) | G16 | z8 d8 | f8 f8 | %9
w: Fam- mi~~u- na|gra- tia,~~a-|mo- re,|i te ne pre\-|||gho.|Di|a ma-|
w: |||||||||
w: |||||||||
 e8 d4 (c4- | c4 B4 c4 d4 | e4 f4 d8) | c16 | z8 (c6 d2) | e8 ^f8 | g8 g8 | (e12 ^f4) | (g8 e8) | %18
w: don- na mi\-|||a|Che *|di ser-|vir- la|el *|cor *|
w: |||||||||
w: |||||||||
 (d8 f8- | f4) e4 d8 | (c8 d6 c2 | B4 G4 A8) | G16 || d8 d4 d4 | g8 g8 | e8 e8 | %26
w: bra\- *|* ma~~e di-|si\- * *||a.|Dil- le con|tu- e|a- mo-|
w: |||||Dil- le che|di mi-|rar- la|
w: |||||Pre- ga- la~~a-|dun- que|et di:|
 (d6 (e2 f2 g2)) a4- | a2 g2 (g8 ^f4) | g16 | z8 g8 | e8 e8 | a12 g4 | (f8 e8 | f8 e4 (d4 | %34
w: ro\- * * * se|* pa- ro\- *|le|che~~a|su ar-|den- ti|ra\- *||
w: i' * * * non|* ar- dis\- *|co,|Et|se~~el- la|vi pon|cu\- *||
w: Don- na * * a\-|* mo- ro\- *|sa,|Tu|ve- di~~in|quan- to|fo\- *||
 d4) c2 B2) c8 | d16 | z8 d8 | d8 d8 | e8 e8 | e12 e4 | d8 (c4 d4 | A8 B8) | A8 z8 | f8 f4 f4 | %44
w: |i|mio|cor si|fa- ce|Co- me|ne- ve al|so\- *|le|e po' che~~i|
w: |ra,|Ve-|dra si|co- me|i tre-|mo e~~in- pa-|li- di-|sco.|Et * de|
w: |co|E\-|* gli|a- de|A te|sta be\- *||ne|es- ser pie-|
 g12 f4 | (e4 c4 d8) | c16 | z8 e8 | f8 f8 | (d8 d8) | e8 e8 | d16 ||[M:3/1][K:treble-8] e8 e8 e8 | %53
w: gli mi-|ra\- * *|i|La|no- cte~~e'l|gior\- *|no, gior-|no,|al- tro non|
w: mor- te|ho pa- u-|ra,|Ma|un suo|dol\- *|ce, dol-|ce,|ma un suo|
w: to *||sa.|Fa,|che ti|par- li|un po-|co:|E- leg- gi|
 c16 c8 | d8 d8 c8 | (B12 c4 d8 | G8) c12 B4 | (A4 G4 A16) | G24 |] %59
w: bra- mo|ma\- * *||||i;|
w: dol- ce,|sguar\- * do|m'as\- * *|* * si-|cu\- * *|ra.|
w: tu, ma-|don\- * na,~~el|tem\- * *|* po e'l|lo\- * *|co.|
V:3
 G,8 G,4 G,4 | A,8 A,8 | G,8 G,8 | F,8 E,4 (D,4- | D,2 E,2 F,4 G,4 F,4 | E,4 G,4 D,8) | D16 | %7
w: Fam- mi~~u- na|gra- tia,~~a-|mo- re,~~i|te ne pre\-|||gho.|
w: |||||||
w: |||||||
 z8 D,8 | D,8 F,8 | (C,4 G,6 F,2) E,4 | (D,8 C,4 G,4- | G,4 F,4 G,8) | C,16 | z8 A,8 | A,8 A,8 | %15
w: Di|a ma-|don\- * * na|mi\- * *||a|Che|di ser-|
w: ||||||||
w: ||||||||
 G,8 G,8 | (C12 B,2 A,2) | (G,8 A,8) | (D,12 E,4) | F,8 G,8 | (A,6 G,2 F,4 D,4 | E,8 D,8) | G,16 || %23
w: vir- la|el * *|cor *|bra\- *|ma~~e di|si\- * * *||a.|
w: ||||||||
w: ||||||||
 D8 D4 D4 | G,8 G,8 | A,8 A,8 | D,12 (F,4- | F,2 G,2) E,4 D,8 | G,16 | z8 G,8 | A,8 A,8 | %31
w: Dil- le con|tu- e|a- mo-|ro- se|* * pa- ro-|le|che~~a|su ar-|
w: Dil- le che|di mi-|rar- la|i' non|* * ar- dis-|co,|Et|se~~el- la|
w: Pre- ga- la~~a-|dun- que|et di:|Don- na~~a\-|* * mo- ro-|sa,|Tu|ve- di~~in|
 F,12 G,4 | (A,4 B,4 C8 | F,8 G,8 | A,8- A,8) | G,16 | z8 G,8 | G,8 F,8 | E,8 E,8 | E,12 F,4 | %40
w: den- ti|ra\- * *|||i|mio|cor si|fa- ce|Co- me|
w: vi pon|cu\- * *|||ra,|Ve-|dra si|co- me|i tre-|
w: quan- to|fo\- * *|||co|E\-|* gli|a- de|A te|
 G,8 (A,4 G,4 | F,8 E,8) | A,8 z8 | D,8 D,4 D,4 | C,8 (G,4 B,4) | (C4 A,4 G,8) | C,16 | z8 C8 | %48
w: ne- ve al|so\- *|le|e po' che~i|gli mi\- *|ra\- * *|i|La|
w: mo e~~in- pa-|li- di-|sco.|Et * de|mor- te *|ho pa- u-|ra,|Ma|
w: sta be\- *||ne|es- ser pie-|to * *||sa.|Fa,|
 F,8 F,8 | G,16 | E,12 F,4 | G,16 ||[M:3/1] C8 C8 C8 | A,8- A,8 A,8 | G,16 A,8 | (G,8- G,8 D,8 | %56
w: no- cte~~e'l|gior-|no, gior-|no,|al- tro non|bra\- * mo|ma\- *||
w: un suo|dol-|ce, dol-|ce,|ma un suo|dol\- * ce,|sguar- do|m'as- * *|
w: che ti|par-|li~~un po-|co:|E- leg- gi|tu, * ma-|don- na,~~el|tem\- * *|
 E,8) F,12 G,4 | (E,8 D,16) | G,24 |] %59
w: ||i;|
w: * * si-|cu\- *|ra.|
w: * po e'l|lo\- *|co.|

